/* XPM */
static char *ehttpeditor[] = {
"128 128 222 2",
"   c None",
"ab c #7c68f4",
"ac c #7c6cf4",
"ad c #786cf4",
"ae c #7870f4",
"af c #7470f4",
"ag c #7474f4",
"ah c #7074f4",
"ai c #7078f4",
"aj c #7078f0",
"ak c #6c78f0",
"al c #6c7cf0",
"am c #687cf0",
"an c #6880f0",
"ao c #6480f0",
"ap c #6484f0",
"aq c #6488f0",
"ar c #6088f0",
"as c #608cf0",
"at c #5c8cf0",
"au c #5c90f0",
"av c #5890f0",
"aw c #5894f0",
"ax c #5494f0",
"ay c #7c64f4",
"az c #8068f4",
"aA c #5498f0",
"aB c #8064f4",
"aC c #5098f0",
"aD c #509cf0",
"aE c #6860d4",
"aF c #48448c",
"aG c #343060",
"aH c #2c284c",
"aI c #202038",
"aJ c #14141c",
"aK c #1c2438",
"aL c #24304c",
"aM c #283c60",
"aN c #34588c",
"aO c #4c80d0",
"aP c #4c9cf0",
"aQ c #7868e8",
"aR c #24203c",
"aS c #1c283c",
"aT c #5094e8",
"aU c #7868f0",
"aV c #5448a0",
"aW c #201c34",
"aX c #1c2434",
"aY c #38649c",
"aZ c #5098ec",
"a0 c #4ca0f0",
"a1 c #7464e0",
"a2 c #2c2850",
"a3 c #243450",
"a4 c #4c90dc",
"a5 c #685ccc",
"a6 c #4484c8",
"a7 c #1c1828",
"a8 c #181c28",
"a9 c #4894e0",
"a+ c #48a0f0",
"a- c #7c68f0",
"ba c #243850",
"bb c #4c9cec",
"bc c #48a4f0",
"bd c #54489c",
"be c #302424",
"bf c #78503c",
"bg c #a06448",
"bh c #986044",
"bi c #604034",
"bj c #1c1820",
"bk c #38689c",
"bl c #9c6444",
"bm c #fc9c60",
"bn c #fc9c64",
"bo c #e4905c",
"bp c #583c30",
"bq c #489ce8",
"br c #48408c",
"bs c #18141c",
"bt c #b87450",
"bu c #845440",
"bv c #305c8c",
"bw c #784c38",
"bx c #a86848",
"by c #18181c",
"bz c #44a8f0",
"bA c #685cd0",
"bB c #dc8858",
"bC c #c47c50",
"bD c #242020",
"bE c #408ccc",
"bF c #44a4f0",
"bG c #2c2424",
"bH c #382828",
"bI c #30608c",
"bJ c #3c2c28",
"bK c #ec945c",
"bL c #50382c",
"bM c #244060",
"bN c #28284c",
"bO c #241c20",
"bP c #f89860",
"bQ c #6c4838",
"bR c #203448",
"bS c #202034",
"bT c #cc8054",
"bU c #905c40",
"bV c #182434",
"bW c #181820",
"bX c #5c3c34",
"bY c #b0704c",
"bZ c #141820",
"b0 c #905c44",
"b1 c #2c2024",
"b2 c #84543c",
"b3 c #e48c5c",
"b4 c #f49860",
"b5 c #f09460",
"b6 c #44302c",
"b7 c #e8905c",
"b8 c #44acf0",
"b9 c #d08454",
"b+ c #40acf0",
"b- c #a86c48",
"ca c #785038",
"cb c #48342c",
"cc c #40b0f0",
"cd c #3cb0f0",
"ce c #141824",
"cf c #185460",
"cg c #1c7c90",
"ch c #1c8498",
"ci c #1c6878",
"cj c #142c34",
"ck c #3cb4f0",
"cl c #184c5c",
"cm c #20bcd8",
"cn c #20d0ec",
"co c #1c8094",
"cp c #187080",
"cq c #1c98b0",
"cr c #1c8ca0",
"cs c #186474",
"ct c #38b4ec",
"cu c #14242c",
"cv c #1ca4b8",
"cw c #20b8d0",
"cx c #18303c",
"cy c #20b4cc",
"cz c #182834",
"cA c #184450",
"cB c #20c4dc",
"cC c #183440",
"cD c #185c6c",
"cE c #20cce8",
"cF c #14202c",
"cG c #1c7888",
"cH c #20acc0",
"cI c #38b8ec",
"cJ c #141c24",
"cK c #1c94a8",
"cL c #18505c",
"cM c #142830",
"cN c #1c788c",
"cO c #20bcd4",
"cP c #1c6c80",
"cQ c #184c58",
"cR c #20c8e4",
"cS c #20cce4",
"cT c #1c6474",
"cU c #20d0e8",
"cV c #20c0d8",
"cW c #183c48",
"cX c #34b8ec",
"cY c #20a8c0",
"cZ c #20acc4",
"c0 c #18404c",
"c1 c #34bcec",
"c2 c #1ca0b8",
"c3 c #30bcec",
"c4 c #30c0ec",
"c5 c #1c2034",
"c6 c #242c48",
"c7 c #1c3848",
"c8 c #2cc0ec",
"c9 c #2c3860",
"c+ c #1c4860",
"c- c #3c508c",
"da c #246c8c",
"db c #2cc4ec",
"dc c #5478d0",
"dd c #2ca4cc",
"de c #20283c",
"df c #5c84e8",
"dg c #182830",
"dh c #30b8e4",
"di c #6088f4",
"dj c #405c9c",
"dk c #247c9c",
"dl c #5c88ec",
"dm c #283450",
"dn c #1c4050",
"do c #5884e0",
"dp c #182838",
"dq c #2cb4dc",
"dr c #5078cc",
"ds c #182028",
"dt c #2ca0c8",
"du c #28c4ec",
"dv c #5484e0",
"dw c #2cb0dc",
"dx c #5890ec",
"dy c #40609c",
"dz c #548ce8",
"dA c #38588c",
"dB c #182c3c",
"dC c #24708c",
"dD c #2cc0f0",
"                                                                                                                                                                                                                                                                ",
"                                                                                                                                                                                                                                                                ",
"                                                                                                                                                                                                                                                                ",
"                                                                                                                                                                                                                                                                ",
"                                                                                                                                                                                                                                                                ",
"                                                                                                                                                                                                                                                                ",
"                                                                                                                                                                                                                                                                ",
"                                                                                                                                                                                                                                                                ",
"                                                                                                                                                                                                                                                                ",
"                                                                                                                                                                                                                                                                ",
"                                                                                                                                                                                                                                                                ",
"                                                                                                                                                                                                                                                                ",
"                                              abababacabacacadadadadadadaeaeafafafafafagagagagahahahahaiaiaiajakakakalalalalalalamamanananananananaoapapapapapapapaqarararararararasatatatatatatauauauavavavavavaw                                              ",
"                                        abababababababacacadadadadadadaeaeaeafafafafagagagagahahahahaiaiaiaiakakakalalalalalalamamanananananananaoapapapapapapapaqarararararararasatatatatatatauauauavavavavavawawawaxax                                        ",
"                                  ayazabababababababacacadadadadadadaeaeaeafafafafagagagagagahahahaiaiaiaiajakakalalalalalalamamanananananananaoapapapapapapapaqarararararararasatatatatatatauauauavavavavavawawawawaxaxaxaxaA                                  ",
"                                aBazabababababababacacadadadadadadaeaeaeafafafafagagagagagahahahaiaiaiaiajakakalalalalalalamamanananananananaoapapapapapapapaqarararararararasatatatatatatauauauavavavavavawawawawaxaxaxaxaAaAaA                                ",
"                            aBaBazabababababababacacadadadadadadaeaeaeafafafafagagagagagahahahaiaiaiaiajakakalalalalalalalamanananananananaoapapapapapapapaqarararararararasatatatatatatauauauavavavavavawawawawaxaxaxaxaAaAaAaAaAaC                            ",
"                          aBaBaBababababababababacadadadadadadaeaeaeafafafafafagagagagahahahaiaiaiaiajakakakalalalalalalamananananananananapapapapapapapaqarararararararasatatatatatatauauauavavavavavawawawawaxaxaxaxaAaAaAaAaAaCaCaD                          ",
"                        aBaBaBazabababababababacadadadadadadadaeaeafafafafafagagagagahahahahaiaiaiajakakakalalalalalalamamanananananananaoapapapapapapapararararararararatatatatatatatauauavavavavavavawawawaxaxaxaxaxaAaAaAaAaCaCaCaDaD                        ",
"                      aBaBaBazabababababababacacadadadadadadaeaeafafafafafagagagagahahahahaiaiaiajakakakalalalalalalamamanananananananaoapapapapapapapaqarararararararasatatatatatatauauavavavavavavawawawaxaxaxaxaxaAaAaAaAaCaCaCaDaDaDaD                      ",
"                    aBaBaBazabababababababacacadaEaFaGaHaIaJaJaJaJaJaJaJaJaJaJaJaJaJaJaJaJaJaJaJaJaJaJaJaJaJaJaJaJaJaJaJaJaJaJaJaJaJaJaJaJaJaJaJaJaJaJaJaJaJaJaJaJaJaJaJaJaJaJaJaJaJaJaJaJaJaJaJaJaJaJaKaLaMaNaOaxaAaAaAaAaCaCaCaDaDaDaDaDaP                    ",
"                  aBaBaBazabababababababacaQaFaRaJaJaJaJaJaJaJaJaJaJaJaJaJaJaJaJaJaJaJaJaJaJaJaJaJaJaJaJaJaJaJaJaJaJaJaJaJaJaJaJaJaJaJaJaJaJaJaJaJaJaJaJaJaJaJaJaJaJaJaJaJaJaJaJaJaJaJaJaJaJaJaJaJaJaJaJaJaJaJaJaSaNaTaAaCaCaCaDaDaDaDaDaPaPaP                  ",
"                aBaBaBazabababababababaUaVaWaJaJaJaJaJaJaJaJaJaJaJaJaJaJaJaJaJaJaJaJaJaJaJaJaJaJaJaJaJaJaJaJaJaJaJaJaJaJaJaJaJaJaJaJaJaJaJaJaJaJaJaJaJaJaJaJaJaJaJaJaJaJaJaJaJaJaJaJaJaJaJaJaJaJaJaJaJaJaJaJaJaJaJaJaXaYaZaCaDaDaDaDaDaPaPaPa0a0                ",
"                aBaBazabababababababa1a2aJaJaJaJaJaJaJaJaJaJaJaJaJaJaJaJaJaJaJaJaJaJaJaJaJaJaJaJaJaJaJaJaJaJaJaJaJaJaJaJaJaJaJaJaJaJaJaJaJaJaJaJaJaJaJaJaJaJaJaJaJaJaJaJaJaJaJaJaJaJaJaJaJaJaJaJaJaJaJaJaJaJaJaJaJaJaJaJa3a4aDaDaDaDaPaPaPa0a0a0                ",
"              aBaBazabababababababa5aIaJaJaJaJaJaJaJaJaJaJaJaJaJaJaJaJaJaJaJaJaJaJaJaJaJaJaJaJaJaJaJaJaJaJaJaJaJaJaJaJaJaJaJaJaJaJaJaJaJaJaJaJaJaJaJaJaJaJaJaJaJaJaJaJaJaJaJaJaJaJaJaJaJaJaJaJaJaJaJaJaJaJaJaJaJaJaJaJaJaJaKa6aDaDaDaPaPa0a0a0a0a0              ",
"            aBaBaBabababababababa5a7aJaJaJaJaJaJaJaJaJaJaJaJaJaJaJaJaJaJaJaJaJaJaJaJaJaJaJaJaJaJaJaJaJaJaJaJaJaJaJaJaJaJaJaJaJaJaJaJaJaJaJaJaJaJaJaJaJaJaJaJaJaJaJaJaJaJaJaJaJaJaJaJaJaJaJaJaJaJaJaJaJaJaJaJaJaJaJaJaJaJaJaJa8a6aDaPaPa0a0a0a0a0a0a0            ",
"            aBaBazababababababa1aIaJaJaJaJaJaJaJaJaJaJaJaJaJaJaJaJaJaJaJaJaJaJaJaJaJaJaJaJaJaJaJaJaJaJaJaJaJaJaJaJaJaJaJaJaJaJaJaJaJaJaJaJaJaJaJaJaJaJaJaJaJaJaJaJaJaJaJaJaJaJaJaJaJaJaJaJaJaJaJaJaJaJaJaJaJaJaJaJaJaJaJaJaJaJaKa9aPaPa0a0a0a0a0a0a+            ",
"            aBazababababababa-a2aJaJaJaJaJaJaJaJaJaJaJaJaJaJaJaJaJaJaJaJaJaJaJaJaJaJaJaJaJaJaJaJaJaJaJaJaJaJaJaJaJaJaJaJaJaJaJaJaJaJaJaJaJaJaJaJaJaJaJaJaJaJaJaJaJaJaJaJaJaJaJaJaJaJaJaJaJaJaJaJaJaJaJaJaJaJaJaJaJaJaJaJaJaJaJaJbabba0a0a0a0a0a0a+bc            ",
"          ayazabababababababbdaJaJaJaJaJaJaJaJaJaJaJaJaJaJaJaJaJaJaJaJaJaJaJaJaJaJaJaJaJaJaJaJaJaJaJaJaJaJaJaJaJaJaJaJaJaJaJaJaJaJaJaJaJaJaJaJaJaJaJbebfbgbhbibjaJaJaJaJaJaJaJaJaJaJaJaJaJaJaJaJaJaJaJaJaJaJaJaJaJaJaJaJaJaJaJaJaJbka0a0a0a0a0a+bcbcbc          ",
"          ababababababababaQaWaJaJaJaJaJaJaJaJaJaJaJaJaJaJaJaJaJaJaJaJaJaJaJaJaJaJaJaJaJaJaJaJaJaJaJaJaJaJaJaJaJaJaJaJaJaJaJaJaJaJaJaJaJaJaJaJaJbjblbmbnbnbnbnbobpaJaJaJaJaJaJaJaJaJaJaJaJaJaJaJaJaJaJaJaJaJaJaJaJaJaJaJaJaJaJaJaJaXbqa0a0a0a+bcbcbcbc          ",
"          abababababababacbraJaJaJaJaJaJaJaJaJaJaJaJaJaJaJaJaJaJaJaJaJaJaJaJaJaJaJaJaJaJaJaJaJaJaJaJaJaJaJaJaJaJaJaJaJaJaJaJaJaJaJaJaJaJaJaJaJbsbtbnbnbnbnbnbnbnbnbuaJaJaJaJaJaJaJaJaJaJaJaJaJaJaJaJaJaJaJaJaJaJaJaJaJaJaJaJaJaJaJaJbva0a0a+bcbcbcbcbc          ",
"        ayababababababacacaRaJaJaJaJaJaJaJaJaJaJaJaJaJaJaJaJaJaJaJaJaJaJaJaJaJaJaJaJaJaJaJaJaJaJaJaJaJaJaJaJaJaJaJaJaJaJaJaJaJaJaJaJaJaJaJaJaJbwbnbnbnbnbnbnbnbnbnbnbxbyaJaJaJaJaJaJaJaJaJaJaJaJaJaJaJaJaJaJaJaJaJaJaJaJaJaJaJaJaJaJaSa0a+bcbcbcbcbcbcbz        ",
"        azabababababacacbAaJaJaJaJaJaJaJaJaJaJaJaJaJaJaJaJaJaJaJaJaJaJaJaJaJaJaJaJaJaJaJaJaJaJaJaJaJaJaJaJaJaJaJaJaJaJaJaJaJaJaJaJaJaJaJaJaJaJbBbnbnbnbnbnbnbnbnbnbnbnbCbDaJaJaJaJaJaJaJaJaJaJaJaJaJaJaJaJaJaJaJaJaJaJaJaJaJaJaJaJaJaJbEbcbcbcbcbcbcbcbF        ",
"        ababababababacadaFaJaJaJaJaJaJaJaJaJaJaJaJaJaJaJaJaJaJaJaJaJaJaJaJaJaJaJaJaJaJaJaJaJaJaJaJaJaJaJaJaJaJaJaJaJaJaJaJaJaJaJaJaJaJaJaJaJbGbnbnbnbnbnbnbnbnbnbnbnbnbnbBbHaJaJaJaJaJaJaJaJaJaJaJaJaJaJaJaJaJaJaJaJaJaJaJaJaJaJaJaJaJbIbcbcbcbcbcbcbcbz        ",
"        abababababacadadaGaJaJaJaJaJaJaJaJaJaJaJaJaJaJaJaJaJaJaJaJaJaJaJaJaJaJaJaJaJaJaJaJaJaJaJaJaJaJaJaJaJaJaJaJaJaJaJaJaJaJaJaJaJaJaJaJaJbJbnbnbnbnbnbnbnbnbnbnbnbnbnbnbKbLaJaJaJaJaJaJaJaJaJaJaJaJaJaJaJaJaJaJaJaJaJaJaJaJaJaJaJaJbMbcbcbcbcbcbcbcbz        ",
"        ababababacacadadbNaJaJaJaJaJaJaJaJaJaJaJaJaJaJaJaJaJaJaJaJaJaJaJaJaJaJaJaJaJaJaJaJaJaJaJaJaJaJaJaJaJaJaJaJaJaJaJaJaJaJaJaJaJaJaJaJaJbObnbnbnbnbnbnbnbnbnbnbnbnbnbnbnbPbQaJaJaJaJaJaJaJaJaJaJaJaJaJaJaJaJaJaJaJaJaJaJaJaJaJaJaJbRbcbcbcbcbcbcbzbz        ",
"        abababacacadadadbSaJaJaJaJaJaJaJaJaJaJaJaJaJaJaJaJaJaJaJaJaJaJaJaJaJaJaJaJaJaJaJaJaJaJaJaJaJaJaJaJaJaJaJaJaJaJaJaJaJaJaJaJaJaJaJaJaJaJbTbnbnbnbnbnbnbnbnbnbnbnbnbnbnbnbnbUaJaJaJaJaJaJaJaJaJaJaJaJaJaJaJaJaJaJaJaJaJaJaJaJaJaJbVbcbcbcbcbcbzbzbz        ",
"        ababacacadadadadbWaJaJaJaJaJaJaJaJaJaJaJaJaJaJaJaJaJaJaJaJaJaJaJaJaJaJaJaJaJaJaJaJaJaJaJaJaJaJaJaJaJaJaJaJaJaJaJaJaJaJaJaJaJaJaJaJaJaJbXbnbnbnbnbnbnbnbnbnbnbnbnbnbnbnbnbnbYbjaJaJaJaJaJaJaJaJaJaJaJaJaJaJaJaJaJaJaJaJaJaJaJaJbZbcbcbcbcbzbzbzbz        ",
"        abacacadadadadadaJaJaJaJaJaJaJaJaJaJaJaJaJaJaJaJaJaJaJaJaJaJaJaJaJaJaJaJaJaJaJaJaJaJaJaJaJaJaJaJaJaJaJaJaJaJaJaJaJaJaJaJaJaJaJaJaJaJaJaJb0bnbnbnbnbnbnbnbnbnbnbnbnbnbnbnbnbnbTb1aJaJaJaJaJaJaJaJaJaJaJaJaJaJaJaJaJaJaJaJaJaJaJaJbcbcbcbzbzbzbzbz        ",
"        acacadadadadadadaJaJaJaJaJaJaJaJaJaJaJaJaJaJaJaJaJaJaJaJaJaJaJaJaJaJaJaJaJaJaJaJaJaJaJaJaJaJaJaJaJaJaJaJaJaJaJaJaJaJaJaJaJaJaJaJaJaJaJaJaJb2bmbnbnbnbnbnbnbnbnbnbnbnbnbnbnbnbnb3bJaJaJaJaJaJaJaJaJaJaJaJaJaJaJaJaJaJaJaJaJaJaJaJbcbcbzbzbzbzbzbz        ",
"        acadadadadadadaeaJaJaJaJaJaJaJaJaJaJaJaJaJaJaJaJaJaJaJaJaJaJaJaJaJaJaJaJaJaJaJaJaJaJaJaJaJaJaJaJaJaJaJaJaJaJaJaJaJaJaJaJaJaJaJaJaJaJaJaJaJaJbib4bnbnbnbnbnbnbnbnbnbnbnbnbnbnbnbnb5bpaJaJaJaJaJaJaJaJaJaJaJaJaJaJaJaJaJaJaJaJaJaJbcbzbzbzbzbzbzbz        ",
"        adadadadadadaeaeaJaJaJaJaJaJaJaJaJaJaJaJaJaJaJaJaJaJaJaJaJaJaJaJaJaJaJaJaJaJaJaJaJaJaJaJaJaJaJaJaJaJaJaJaJaJaJaJaJaJaJaJaJaJaJaJaJaJaJaJaJaJaJb6b7bnbnbnbnbnbnbnbnbnbnbnbnbnbnbnbnbmbfaJaJaJaJaJaJaJaJaJaJaJaJaJaJaJaJaJaJaJaJaJbzbzbzbzbzbzbzbz        ",
"        adadadadadadaeaeaJaJaJaJaJaJaJaJaJaJaJaJaJaJaJaJbybfbTb4bnbnbnbnbnbnbnbnbnbnbnbnbnbnbnbnbnbnbnbnbnbnbnbnbnbnbnbnbnbnbnbnbnbnbnbnbnbnbnbnbnbnbnbnbnbnbnbnbnbnbnbnbnbnbnbnbnbnbnbnbnbnbnblbyaJaJaJaJaJaJaJaJaJaJaJaJaJaJaJaJaJaJaJbzbzbzbzbzbzbzb8        ",
"        adadadadadaeaeafaJaJaJaJaJaJaJaJaJaJaJaJaJaJaJbGb9bnbnbnbnbnbnbnbnbnbnbnbnbnbnbnbnbnbnbnbnbnbnbnbnbnbnbnbnbnbnbnbnbnbnbnbnbnbnbnbnbnbnbnbnbnbnbnbnbnbnbnbnbnbnbnbnbnbnbnbnbnbnbnbnbnbnbnbtbjaJaJaJaJaJaJaJaJaJaJaJaJaJaJaJaJaJaJbzbzbzbzbzbzbzb+        ",
"        adadadadaeaeafafaJaJaJaJaJaJaJaJaJaJaJaJaJaJbyb9bnbnbnbnbnbnbnbnbnbnbnbnbnbnbnbnbnbnbnbnbnbnbnbnbnbnbnbnbnbnbnbnbnbnbnbnbnbnbnbnbnbnbnbnbnbnbnbnbnbnbnbnbnbnbnbnbnbnbnbnbnbnbnbnbnbnbnbnbnb-aJaJaJaJaJaJaJaJaJaJaJaJaJaJaJaJaJaJbzbzbzbzbzbzb8b+        ",
"        adadadaeaeaeafafaJaJaJaJaJaJaJaJaJaJaJaJaJaJcabnbnbnbnbnbnbnbnbnbnbnbnbnbnbnbnbnbnbnbnbnbnbnbnbnbnbnbnbnbnbnbnbnbnbnbnbnbnbnbnbnbnbnbnbnbnbnbnbnbnbnbnbnbnbnbnbnbnbnbnbnbnbnbnbnbnbnbnbnbnbncbaJaJaJaJaJaJaJaJaJaJaJaJaJaJaJaJaJbzbzbzbzbzb8b+b+        ",
"        adadaeaeaeafafafaJaJaJaJaJaJaJaJaJaJaJaJaJaJbTbnbnbnbnbnbnbnbnbnbnbnbnbnbnbnbnbnbnbnbnbnbnbnbnbnbnbnbnbnbnbnbnbnbnbnbnbnbnbnbnbnbnbnbnbnbnbnbnbnbnbnbnbnbnbnbnbnbnbnbnbnbnbnbnbnbnbnbnbnbnbnblaJaJaJaJaJaJaJaJaJaJaJaJaJaJaJaJaJbzbzbzbzb8b+b+b+        ",
"        adaeaeaeafafafafaJaJaJaJaJaJaJaJaJaJaJaJaJaJb5bnbnbnbnbnbnbnbnbnbnbnbnbnbnbnbnbnbnbnbnbnbnbnbnbnbnbnbnbnbnbnbnbnbnbnbnbnbnbnbnbnbnbnbnbnbnbnbnbnbnbnbnbnbnbnbnbnbnbnbnbnbnbnbnbnbnbnbnbnbnbnbCaJaJaJaJaJaJaJaJaJaJaJaJaJaJaJaJaJbzbzbzb8b+b+b+b+        ",
"        aeaeaeafafafafagaJaJaJaJaJaJaJaJaJaJaJaJaJaJb5bnbnbnbnbnbnbnbnbnbnbnbnbnbnbnbnbnbnbnbnbnbnbnbnbnbnbnbnbnbnbnbnbnbnbnbnbnbnbnbnbnbnbnbnbnbnbnbnbnbnbnbnbnbnbnbnbnbnbnbnbnbnbnbnbnbnbnbnbnbnbnbCaJaJaJaJaJaJaJaJaJaJaJaJaJaJaJaJaJbzbzb8b+b+b+b+b+        ",
"        aeaeafafafafafagaJaJaJaJaJaJaJaJaJaJaJaJaJaJbTbnbnbnbnbnbnbnbnbnbnbnbnbnbnbnbnbnbnbnbnbnbnbnbnbnbnbnbnbnbnbnbnbnbnbnbnbnbnbnbnbnbnbnbnbnbnbnbnbnbnbnbnbnbnbnbnbnbnbnbnbnbnbnbnbnbnbnbnbnbnbnblaJaJaJaJaJaJaJaJaJaJaJaJaJaJaJaJaJbzb8b+b+b+b+b+b+        ",
"        aeafafafafafagagaJaJaJaJaJaJaJaJaJaJaJaJaJaJcabnbnbnbnbnbnbnbnbnbnbnbnbnbnbnbnbnbnbnbnbnbnbnbnbnbnbnbnbnbnbnbnbnbnbnbnbnbnbnbnbnbnbnbnbnbnbnbnbnbnbnbnbnbnbnbnbnbnbnbnbnbnbnbnbnbnbnbnbnbnbncbaJaJaJaJaJaJaJaJaJaJaJaJaJaJaJaJaJb8b+b+b+b+b+b+b+        ",
"        afafafafafagagagaJaJaJaJaJaJaJaJaJaJaJaJaJaJbyb9bnbnbnbnbnbnbnbnbnbnbnbnbnbnbnbnbnbnbnbnbnbnbnbnbnbnbnbnbnbnbnbnbnbnbnbnbnbnbnbnbnbnbnbnbnbnbnbnbnbnbnbnbnbnbnbnbnbnbnbnbnbnbnbnbnbnbnbnbnb-aJaJaJaJaJaJaJaJaJaJaJaJaJaJaJaJaJaJb+b+b+b+b+b+b+cc        ",
"        afafafafagagagagaJaJaJaJaJaJaJaJaJaJaJaJaJaJaJbGb9bnbnbnbnbnbnbnbnbnbnbnbnbnbnbnbnbnbnbnbnbnbnbnbnbnbnbnbnbnbnbnbnbnbnbnbnbnbnbnbnbnbnbnbnbnbnbnbnbnbnbnbnbnbnbnbnbnbnbnbnbnbnbnbnbnbnbnbtbjaJaJaJaJaJaJaJaJaJaJaJaJaJaJaJaJaJaJb+b+b+b+b+b+cccc        ",
"        afafafagagagagahaJaJaJaJaJaJaJaJaJaJaJaJaJaJaJaJbybfbTb4bnbnbnbnbnbnbnbnbnbnbnbnbnbnbnbnbnbnbnbnbnbnbnbnbnbnbnbnbnbnbnbnbnbnbnbnbnbnbnbnbnbnbnbnbnbnbnbnbnbnbnbnbnbnbnbnbnbnbnbnbnbnbnblbyaJaJaJaJaJaJaJaJaJaJaJaJaJaJaJaJaJaJaJb+b+b+b+b+cccccd        ",
"        afafagagagagagahaJaJaJaJaJaJaJaJaJaJaJaJaJaJaJaJaJaJaJaJaJaJaJaJaJaJaJaJaJaJaJaJaJaJaJaJaJaJaJaJaJaJaJaJaJaJaJaJaJaJaJaJaJaJaJaJaJaJaJaJaJaJaJb6b7bnbnbnbnbnbnbnbnbnbnbnbnbnbnbnbnbmbfaJaJaJaJaJaJaJaJaJaJaJaJaJaJaJaJaJaJaJaJaJb+b+b+b+cccccdcd        ",
"        afagagagagagahahaJaJaJaJaJaJaJaJaJaJaJaJaJaJaJaJaJaJaJaJaJaJaJaJaJaJaJaJaJaJaJaJaJaJaJaJaJaJaJaJaJaJaJaJaJaJaJaJaJaJaJaJaJaJaJaJaJaJaJaJaJaJbib4bnbnbnbnbnbnbnbnbnbnbnbnbnbnbnbnb5bpaJaJaJaJaJaJaJaJaJaJaJaJaJaJaJaJaJaJaJaJaJaJb+b+b+cccccdcdcd        ",
"        agagagagagahahahaJaJaJaJaJaJaJaJaJaJaJaJaJaJaJaJaJaJaJaJaJaJaJaJaJaJaJaJaJaJaJaJaJaJaJaJaJaJaJaJaJaJaJaJaJaJaJaJaJaJaJaJaJaJaJaJaJaJaJaJaJb2bmbnbnbnbnbnbnbnbnbnbnbnbnbnbnbnbnb3bJaJaJaJaJaJaJaJaJaJaJaJaJaJaJaJaJaJaJaJaJaJaJaJb+b+cccccdcdcdcd        ",
"        agagagagahahahaiaJaJaJaJaJaJaJaJaJaJaJaJaJaJaJaJaJaJaJaJaJaJaJaJaJaJaJaJaJaJaJaJaJaJaJaJaJaJaJaJaJaJaJaJaJaJaJaJaJaJaJaJaJaJaJaJaJaJaJaJb0bnbnbnbnbnbnbnbnbnbnbnbnbnbnbnbnbnbTb1aJaJaJaJaJaJaJaJaJaJaJaJaJaJaJaJaJaJaJaJaJaJaJaJb+cccccdcdcdcdcd        ",
"        agagagahahahahaiaJaJaJaJaJaJaJaJaJaJaJaJaJaJaJaJaJaJaJaJaJaJaJaJaJaJaJaJaJaJaJaJaJaJaJaJaJaJaJaJaJaJaJaJaJaJaJaJaJaJaJaJaJaJaJaJaJaJaJbXbnbnbnbnbnbnbnbnbnbnbnbnbnbnbnbnbnbYbjaJaJaJaJaJaJaJaJaJaJaJaJaJaJaJaJaJaJaJaJaJaJaJaJaJb+cccdcdcdcdcdcd        ",
"        agagahahahahaiaiaJaJaJaJaJaJaJaJaJaJaJaJaJaJaJaJaJaJaJaJaJaJaJaJaJaJaJaJaJaJaJaJaJaJaJaJaJaJaJaJaJaJaJaJaJaJaJaJaJaJaJaJaJaJaJaJaJaJaJbTbnbnbnbnbnbnbnbnbnbnbnbnbnbnbnbnbUaJaJaJaJaJaJaJaJaJaJaJaJaJaJaJaJaJaJaJaJaJaJaJaJaJaJaJcccdcdcdcdcdcdcd        ",
"        agahahahahaiaiaiaJaJaJaJaJaJaJaJaJaJaJaJaJaJaJaJaJaJaJaJaJaJaJaJaJaJaJaJaJaJaJaJaJaJaJaJcecfcgchcicjaJaJaJaJaJaJaJaJaJaJaJaJaJaJaJaJbObnbnbnbnbnbnbnbnbnbnbnbnbnbnbnbPbQaJaJaJaJaJaJaJaJaJaJaJaJaJaJaJaJaJaJaJaJaJaJaJaJaJaJaJaJcccdcdcdcdcdcdck        ",
"        ahahahahaiaiaiaiaJaJaJaJaJaJaJaJaJaJaJaJaJaJaJaJaJaJaJaJaJaJaJaJaJaJaJaJaJaJaJaJaJaJaJclcmcncncncncncoceaJaJaJaJaJaJaJaJaJaJaJaJaJaJbJbnbnbnbnbnbnbnbnbnbnbnbnbnbnbKbLaJaJaJaJaJaJaJaJaJaJaJaJaJaJaJaJaJaJaJaJaJaJaJaJaJaJaJaJaJcdcdcdcdcdcdckck        ",
"        ahahahaiaiaiaiajaJaJaJaJaJaJaJaJaJaJaJaJaJaJaJaJaJaJaJaJaJaJaJaJaJaJaJaJaJaJaJaJaJaJcpcncncncncncncncncqbZaJaJaJaJaJaJaJaJaJaJaJaJaJbGbnbnbnbnbnbnbnbnbnbnbnbnbnbBbHaJaJaJaJaJaJaJaJaJaJaJaJaJaJaJaJaJaJaJaJaJaJaJaJaJaJaJaJaJaJcdcdcdcdcdckckck        ",
"        ahahaiaiaiaiajakaJaJaJaJaJaJaJaJaJaJaJaJaJaJaJaJaJaJaJaJaJaJaJaJaJaJaJaJaJaJaJaJbZcrcncncncncncncncncncncsaJaJaJaJaJaJaJaJaJaJaJaJaJaJbBbnbnbnbnbnbnbnbnbnbnbnbCbDaJaJaJaJaJaJaJaJaJaJaJaJaJaJaJaJaJaJaJaJaJaJaJaJaJaJaJaJaJaJaJcdcdcdcdckckckct        ",
"        ahaiaiaiaiajakakaJaJaJaJaJaJaJaJaJaJaJaJaJaJaJaJaJaJaJaJaJaJaJaJaJaJaJaJaJaJaJcucvcncncncncncncncncncncncwaJaJaJaJaJaJaJaJaJaJaJaJaJaJbwbnbnbnbnbnbnbnbnbnbnbxbyaJaJaJaJaJaJaJaJaJaJaJaJaJaJaJaJaJaJaJaJaJaJaJaJaJaJaJaJaJaJaJaJcdcdcdckckckctct        ",
"        aiaiaiaiajakakakaJaJaJaJaJaJaJaJaJaJaJaJaJaJaJaJaJaJaJaJaJaJaJaJaJaJaJaJaJaJcxcycncncncncncncncncncncncncnczaJaJaJaJaJaJaJaJaJaJaJaJaJbsbtbnbnbnbnbnbnbnbnbuaJaJaJaJaJaJaJaJaJaJaJaJaJaJaJaJaJaJaJaJaJaJaJaJaJaJaJaJaJaJaJaJaJaJcdcdckckckctctct        ",
"        aiaiaiajakakakalaJaJaJaJaJaJaJaJaJaJaJaJaJaJaJaJaJaJaJaJaJaJaJaJaJaJaJaJaJcAcBcncncncncncncncncncncncncncncCaJaJaJaJaJaJaJaJaJaJaJaJaJaJbjblbmbnbnbnbnbobpaJaJaJaJaJaJaJaJaJaJaJaJaJaJaJaJaJaJaJaJaJaJaJaJaJaJaJaJaJaJaJaJaJaJaJcdckckckctctctct        ",
"        aiaiajakakakalalaJaJaJaJaJaJaJaJaJaJaJaJaJaJaJaJaJaJaJaJaJaJaJaJaJaJaJaJcDcEcncncncncncncncncncncncncncncncFaJaJaJaJaJaJaJaJaJaJaJaJaJaJaJaJbebfbgbhbibjaJaJaJaJaJaJaJaJaJaJaJaJaJaJaJaJaJaJaJaJaJaJaJaJaJaJaJaJaJaJaJaJaJaJaJaJcdckckctctctctct        ",
"        aiajakakakalalalaJaJaJaJaJaJaJaJaJaJaJaJaJaJaJaJaJaJaJaJaJaJaJaJaJaJaJcGcncncncncncncncncncncncncncncncncHaJaJaJaJaJaJaJaJaJaJaJaJaJaJaJaJaJaJaJaJaJaJaJaJaJaJaJaJaJaJaJaJaJaJaJaJaJaJaJaJaJaJaJaJaJaJaJaJaJaJaJaJaJaJaJaJaJaJaJckckctctctctctcI        ",
"        aiakakakalalalalaJaJaJaJaJaJaJaJaJaJaJaJaJaJaJaJaJaJaJaJaJaJaJaJaJcJcKcncncncncncncncncncncncncncncncncncLaJaJaJaJaJaJaJaJaJaJaJaJaJaJaJaJaJaJaJaJaJaJaJaJaJaJaJaJaJaJaJaJaJaJaJaJaJaJaJaJaJaJaJaJaJaJaJaJaJaJaJaJaJaJaJaJaJaJaJckckctctctctcIcI        ",
"        ajakakalalalalalaJaJaJaJaJaJaJaJaJaJaJaJaJaJaJaJaJaJaJaJaJaJaJaJcMcHcncncncncncncncncncncncncncncncncncNaJaJaJaJaJaJaJaJaJaJaJaJaJaJaJaJaJaJaJaJaJaJaJaJaJaJaJaJaJaJaJaJaJaJaJaJaJaJaJaJaJaJaJaJaJaJaJaJaJaJaJaJaJaJaJaJaJaJaJaJckctctctctcIcIcI        ",
"        akakalalalalalalaJaJaJaJaJaJaJaJaJaJaJaJaJaJaJaJaJaJaJaJaJaJaJcCcOcncncncncncncncncncncncncncncncncncPaJaJaJaJaJaJaJaJaJaJaJaJaJaJaJaJaJaJaJaJaJaJaJaJaJaJaJaJaJaJaJaJaJaJaJaJaJaJaJaJaJaJaJaJaJaJaJaJaJaJaJaJaJaJaJaJaJaJaJaJaJctctctctcIcIcIcI        ",
"        akalalalalalalalaJaJaJaJaJaJaJaJaJaJaJaJaJaJaJaJaJaJaJaJaJaJcQcRcncncncncncncncncncncncncncncncncScfaJaJaJaJaJaJaJaJaJaJaJaJaJaJaJaJaJaJaJaJaJaJaJaJaJaJaJaJaJaJaJaJaJaJaJaJaJaJaJaJaJaJaJaJaJaJaJaJaJaJaJaJaJaJaJaJaJaJaJaJaJaJctctctcIcIcIcIcI        ",
"        akalalalalalalamaJaJaJaJaJaJaJaJaJaJaJaJaJaJaJaJaJaJaJaJaJcTcUcncncncncncncncncncncncncncncncncVcWaJaJaJaJaJaJaJaJaJaJaJaJaJaJaJaJaJaJaJaJaJaJaJaJaJaJaJaJaJaJaJaJaJaJaJaJaJaJaJaJaJaJaJaJaJaJaJaJaJaJaJaJaJaJaJaJaJaJaJaJaJaJaJctctcIcIcIcIcIcX        ",
"        alalalalalalamamaJaJaJaJaJaJaJaJaJaJaJaJaJaJaJaJaJaJaJbZcocncncncncncncncncncncncncncncncncncncncncncncncncncncncncncncncncncncncncncncncncncncncncncncncncncncncncncncncncncncncncncncncRcYcTbZaJaJaJaJaJaJaJaJaJaJaJaJaJaJaJaJctctcIcIcIcIcXcX        ",
"        alalalalalamamanaJaJaJaJaJaJaJaJaJaJaJaJaJaJaJaJaJaJcecqcncncncncncncncncncncncncncncncncncncncncncncncncncncncncncncncncncncncncncncncncncncncncncncncncncncncncncncncncncncncncncncncncncncncZczaJaJaJaJaJaJaJaJaJaJaJaJaJaJaJctcIcIcIcIcXcXcX        ",
"        alalalalamamananaJaJaJaJaJaJaJaJaJaJaJaJaJaJaJaJaJaJcrcncncncncncncncncncncncncncncncncncncncncncncncncncncncncncncncncncncncncncncncncncncncncncncncncncncncncncncncncncncncncncncncncncncncncncZbZaJaJaJaJaJaJaJaJaJaJaJaJaJaJcIcIcIcIcXcXcXcX        ",
"        alalalamamanananaJaJaJaJaJaJaJaJaJaJaJaJaJaJaJaJaJc0cncncncncncncncncncncncncncncncncncncncncncncncncncncncncncncncncncncncncncncncncncncncncncncncncncncncncncncncncncncncncncncncncncncncncncncncsaJaJaJaJaJaJaJaJaJaJaJaJaJaJcIcIcIcXcXcXcXc1        ",
"        alalamamananananaJaJaJaJaJaJaJaJaJaJaJaJaJaJaJaJaJcocncncncncncncncncncncncncncncncncncncncncncncncncncncncncncncncncncncncncncncncncncncncncncncncncncncncncncncncncncncncncncncncncncncncncncncncYaJaJaJaJaJaJaJaJaJaJaJaJaJaJcIcIcXcXcXcXc1c1        ",
"        alamamanananananaJaJaJaJaJaJaJaJaJaJaJaJaJaJaJaJaJc2cncncncncncncncncncncncncncncncncncncncncncncncncncncncncncncncncncncncncncncncncncncncncncncncncncncncncncncncncncncncncncncncncncncncncncncncRaJaJaJaJaJaJaJaJaJaJaJaJaJaJcIcIcXcXcXc1c1c1        ",
"        alamananananananaJaJaJaJaJaJaJaJaJaJaJaJaJaJaJaJaJc2cncncncncncncncncncncncncncncncncncncncncncncncncncncncncncncncncncncncncncncncncncncncncncncncncncncncncncncncncncncncncncncncncncncncncncncncRaJaJaJaJaJaJaJaJaJaJaJaJaJaJcIcXcXcXc1c1c1c1        ",
"        amanananananananaJaJaJaJaJaJaJaJaJaJaJaJaJaJaJaJaJcocncncncncncncncncncncncncncncncncncncncncncncncncncncncncncncncncncncncncncncncncncncncncncncncncncncncncncncncncncncncncncncncncncncncncncncncYaJaJaJaJaJaJaJaJaJaJaJaJaJaJcXcXcXc1c1c1c1c1        ",
"        amanananananananaJaJaJaJaJaJaJaJaJaJaJaJaJaJaJaJaJc0cncncncncncncncncncncncncncncncncncncncncncncncncncncncncncncncncncncncncncncncncncncncncncncncncncncncncncncncncncncncncncncncncncncncncncncncsaJaJaJaJaJaJaJaJaJaJaJaJaJaJcXcXc1c1c1c1c1c1        ",
"        anananananananaoaJaJaJaJaJaJaJaJaJaJaJaJaJaJaJaJaJaJcrcncncncncncncncncncncncncncncncncncncncncncncncncncncncncncncncncncncncncncncncncncncncncncncncncncncncncncncncncncncncncncncncncncncncncncZbZaJaJaJaJaJaJaJaJaJaJaJaJaJaJcXcXc1c1c1c1c1c3        ",
"        ananananananaoapaJaJaJaJaJaJaJaJaJaJaJaJaJaJaJaJaJaJcecqcncncncncncncncncncncncncncncncncncncncncncncncncncncncncncncncncncncncncncncncncncncncncncncncncncncncncncncncncncncncncncncncncncncncZczaJaJaJaJaJaJaJaJaJaJaJaJaJaJaJcXc1c1c1c1c1c3c3        ",
"        anananananaoapapaJaJaJaJaJaJaJaJaJaJaJaJaJaJaJaJaJaJaJbZcocncncncncncncncncncncncncncncncncncncncncncncncncncncncncncncncncncncncncncncncncncncncncncncncncncncncncncncncncncncncncncncncRcYcTbZaJaJaJaJaJaJaJaJaJaJaJaJaJaJaJaJc1c1c1c1c1c3c3c3        ",
"        ananananaoapapapaJaJaJaJaJaJaJaJaJaJaJaJaJaJaJaJaJaJaJaJaJcTcUcncncncncncncncncncncncncncncncncVcWaJaJaJaJaJaJaJaJaJaJaJaJaJaJaJaJaJaJaJaJaJaJaJaJaJaJaJaJaJaJaJaJaJaJaJaJaJaJaJaJaJaJaJaJaJaJaJaJaJaJaJaJaJaJaJaJaJaJaJaJaJaJaJc1c1c1c1c3c3c3c4        ",
"        anananaoapapapapaJaJaJaJaJaJaJaJaJaJaJaJaJaJaJaJaJaJaJaJaJaJcQcRcncncncncncncncncncncncncncncncncScfaJaJaJaJaJaJaJaJaJaJaJaJaJaJaJaJaJaJaJaJaJaJaJaJaJaJaJaJaJaJaJaJaJaJaJaJaJaJaJaJaJaJaJaJaJaJaJaJaJaJaJaJaJaJaJaJaJaJaJaJaJaJc1c1c1c3c3c3c4c4        ",
"        ananaoapapapapapaJaJaJaJaJaJaJaJaJaJaJaJaJaJaJaJaJaJaJaJaJaJaJcCcOcncncncncncncncncncncncncncncncncncPaJaJaJaJaJaJaJaJaJaJaJaJaJaJaJaJaJaJaJaJaJaJaJaJaJaJaJaJaJaJaJaJaJaJaJaJaJaJaJaJaJaJaJaJaJaJaJaJaJaJaJaJaJaJaJaJaJaJaJaJaJc1c1c1c3c3c4c4c4        ",
"        ananapapapapapapaJaJaJaJaJaJaJaJaJaJaJaJaJaJaJaJaJaJaJaJaJaJaJaJcMcHcncncncncncncncncncncncncncncncncncNaJaJaJaJaJaJaJaJaJaJaJaJaJaJaJaJaJaJaJaJaJaJaJaJaJaJaJaJaJaJaJaJaJaJaJaJaJaJaJaJaJaJaJaJaJaJaJaJaJaJaJaJaJaJaJaJaJaJaJaJc1c1c3c3c4c4c4c4        ",
"        anaoapapapapapapbWaJaJaJaJaJaJaJaJaJaJaJaJaJaJaJaJaJaJaJaJaJaJaJaJcJcKcncncncncncncncncncncncncncncncncncLaJaJaJaJaJaJaJaJaJaJaJaJaJaJaJaJaJaJaJaJaJaJaJaJaJaJaJaJaJaJaJaJaJaJaJaJaJaJaJaJaJaJaJaJaJaJaJaJaJaJaJaJaJaJaJaJaJaJbZc1c3c3c4c4c4c4c4        ",
"        aoapapapapapapapc5aJaJaJaJaJaJaJaJaJaJaJaJaJaJaJaJaJaJaJaJaJaJaJaJaJaJcGcncncncncncncncncncncncncncncncncHaJaJaJaJaJaJaJaJaJaJaJaJaJaJaJaJaJaJaJaJaJaJaJaJaJaJaJaJaJaJaJaJaJaJaJaJaJaJaJaJaJaJaJaJaJaJaJaJaJaJaJaJaJaJaJaJaJaJczc3c3c3c4c4c4c4c4        ",
"        apapapapapapapaqc6aJaJaJaJaJaJaJaJaJaJaJaJaJaJaJaJaJaJaJaJaJaJaJaJaJaJaJcDcEcncncncncncncncncncncncncncncncFaJaJaJaJaJaJaJaJaJaJaJaJaJaJaJaJaJaJaJaJaJaJaJaJaJaJaJaJaJaJaJaJaJaJaJaJaJaJaJaJaJaJaJaJaJaJaJaJaJaJaJaJaJaJaJaJaJc7c3c3c4c4c4c4c4c8        ",
"        apapapapapapaqarc9aJaJaJaJaJaJaJaJaJaJaJaJaJaJaJaJaJaJaJaJaJaJaJaJaJaJaJaJcAcBcncncncncncncncncncncncncncncCaJaJaJaJaJaJaJaJaJaJaJaJaJaJaJaJaJaJaJaJaJaJaJaJaJaJaJaJaJaJaJaJaJaJaJaJaJaJaJaJaJaJaJaJaJaJaJaJaJaJaJaJaJaJaJaJaJc+c3c4c4c4c4c4c8c8        ",
"        apapapapapaqararc-aJaJaJaJaJaJaJaJaJaJaJaJaJaJaJaJaJaJaJaJaJaJaJaJaJaJaJaJaJcxcycncncncncncncncncncncncncnczaJaJaJaJaJaJaJaJaJaJaJaJaJaJaJaJaJaJaJaJaJaJaJaJaJaJaJaJaJaJaJaJaJaJaJaJaJaJaJaJaJaJaJaJaJaJaJaJaJaJaJaJaJaJaJaJaJdac4c4c4c4c4c8c8db        ",
"        apapapapaqararardcaJaJaJaJaJaJaJaJaJaJaJaJaJaJaJaJaJaJaJaJaJaJaJaJaJaJaJaJaJaJcucvcncncncncncncncncncncncwaJaJaJaJaJaJaJaJaJaJaJaJaJaJaJaJaJaJaJaJaJaJaJaJaJaJaJaJaJaJaJaJaJaJaJaJaJaJaJaJaJaJaJaJaJaJaJaJaJaJaJaJaJaJaJaJaJaJddc4c4c4c4c8c8dbdb        ",
"        apapapaqararararardeaJaJaJaJaJaJaJaJaJaJaJaJaJaJaJaJaJaJaJaJaJaJaJaJaJaJaJaJaJaJbZcrcncncncncncncncncncncsaJaJaJaJaJaJaJaJaJaJaJaJaJaJaJaJaJaJaJaJaJaJaJaJaJaJaJaJaJaJaJaJaJaJaJaJaJaJaJaJaJaJaJaJaJaJaJaJaJaJaJaJaJaJaJaJaJcxc4c4c4c4c8c8dbdbdb        ",
"          apaqararararararc-aJaJaJaJaJaJaJaJaJaJaJaJaJaJaJaJaJaJaJaJaJaJaJaJaJaJaJaJaJaJaJaJcpcncncncncncncncncqbZaJaJaJaJaJaJaJaJaJaJaJaJaJaJaJaJaJaJaJaJaJaJaJaJaJaJaJaJaJaJaJaJaJaJaJaJaJaJaJaJaJaJaJaJaJaJaJaJaJaJaJaJaJaJaJaJaJdac4c4c4c4c8dbdbdb          ",
"          apaqarararararardfc5aJaJaJaJaJaJaJaJaJaJaJaJaJaJaJaJaJaJaJaJaJaJaJaJaJaJaJaJaJaJaJaJclcmcncncncncncoceaJaJaJaJaJaJaJaJaJaJaJaJaJaJaJaJaJaJaJaJaJaJaJaJaJaJaJaJaJaJaJaJaJaJaJaJaJaJaJaJaJaJaJaJaJaJaJaJaJaJaJaJaJaJaJaJaJdgdhc4c4c4c8dbdbdbdb          ",
"          diarararararararasdjaJaJaJaJaJaJaJaJaJaJaJaJaJaJaJaJaJaJaJaJaJaJaJaJaJaJaJaJaJaJaJaJaJcecfcgchcicjaJaJaJaJaJaJaJaJaJaJaJaJaJaJaJaJaJaJaJaJaJaJaJaJaJaJaJaJaJaJaJaJaJaJaJaJaJaJaJaJaJaJaJaJaJaJaJaJaJaJaJaJaJaJaJaJaJaJaJdkc4c4c4c8c8dbdbdbdb          ",
"            ararararararasatdldmaJaJaJaJaJaJaJaJaJaJaJaJaJaJaJaJaJaJaJaJaJaJaJaJaJaJaJaJaJaJaJaJaJaJaJaJaJaJaJaJaJaJaJaJaJaJaJaJaJaJaJaJaJaJaJaJaJaJaJaJaJaJaJaJaJaJaJaJaJaJaJaJaJaJaJaJaJaJaJaJaJaJaJaJaJaJaJaJaJaJaJaJaJaJaJaJdnc3c4c4c8c8dbdbdbdb            ",
"            arararararasatatatdoaKaJaJaJaJaJaJaJaJaJaJaJaJaJaJaJaJaJaJaJaJaJaJaJaJaJaJaJaJaJaJaJaJaJaJaJaJaJaJaJaJaJaJaJaJaJaJaJaJaJaJaJaJaJaJaJaJaJaJaJaJaJaJaJaJaJaJaJaJaJaJaJaJaJaJaJaJaJaJaJaJaJaJaJaJaJaJaJaJaJaJaJaJaJaJdpdqc4c4c8c8dbdbdbdbdb            ",
"            ararararasatatatatatdra8aJaJaJaJaJaJaJaJaJaJaJaJaJaJaJaJaJaJaJaJaJaJaJaJaJaJaJaJaJaJaJaJaJaJaJaJaJaJaJaJaJaJaJaJaJaJaJaJaJaJaJaJaJaJaJaJaJaJaJaJaJaJaJaJaJaJaJaJaJaJaJaJaJaJaJaJaJaJaJaJaJaJaJaJaJaJaJaJaJaJaJaJdsdtc4c4c8c8dbdbdbdbdbdu            ",
"              ararasatatatatatataudraKaJaJaJaJaJaJaJaJaJaJaJaJaJaJaJaJaJaJaJaJaJaJaJaJaJaJaJaJaJaJaJaJaJaJaJaJaJaJaJaJaJaJaJaJaJaJaJaJaJaJaJaJaJaJaJaJaJaJaJaJaJaJaJaJaJaJaJaJaJaJaJaJaJaJaJaJaJaJaJaJaJaJaJaJaJaJaJaJaJaJdpdtc4c4c8c8dbdbdbdbdbdb              ",
"                asatatatatatatauauaudva3aJaJaJaJaJaJaJaJaJaJaJaJaJaJaJaJaJaJaJaJaJaJaJaJaJaJaJaJaJaJaJaJaJaJaJaJaJaJaJaJaJaJaJaJaJaJaJaJaJaJaJaJaJaJaJaJaJaJaJaJaJaJaJaJaJaJaJaJaJaJaJaJaJaJaJaJaJaJaJaJaJaJaJaJaJaJaJaJdndwc4c4c8c8dbdbdbdbdbdb                ",
"                atatatatatatatauauavavdxdyc5aJaJaJaJaJaJaJaJaJaJaJaJaJaJaJaJaJaJaJaJaJaJaJaJaJaJaJaJaJaJaJaJaJaJaJaJaJaJaJaJaJaJaJaJaJaJaJaJaJaJaJaJaJaJaJaJaJaJaJaJaJaJaJaJaJaJaJaJaJaJaJaJaJaJaJaJaJaJaJaJaJaJaJaJdgdkc3c4c4c4c8dbdbdbdbdbdbdb                ",
"                  atatatatatauauavavavavavdzdAdeaJaJaJaJaJaJaJaJaJaJaJaJaJaJaJaJaJaJaJaJaJaJaJaJaJaJaJaJaJaJaJaJaJaJaJaJaJaJaJaJaJaJaJaJaJaJaJaJaJaJaJaJaJaJaJaJaJaJaJaJaJaJaJaJaJaJaJaJaJaJaJaJaJaJaJaJaJaJaJaJdBdCdhc4c4c4c4c8c8dbdbdbdbdbdb                  ",
"                    atatatauauavavavavavavawawawaOdAaMaLaKaJaJaJaJaJaJaJaJaJaJaJaJaJaJaJaJaJaJaJaJaJaJaJaJaJaJaJaJaJaJaJaJaJaJaJaJaJaJaJaJaJaJaJaJaJaJaJaJaJaJaJaJaJaJaJaJaJaJaJaJaJaJaJaJaJaJaJaJaJaJdpc7c+daddc3c4c4c4c4c4c8c8dbdbdbdbdbdb                    ",
"                      atauauauavavavavavawawawaxaxaxaxaxaAaAaAaAaCaCaCaDaDaDaDaDaPaPaPa0a0a0a0a0a0a+bcbcbcbcbcbcbcbcbzbzbzbzbzbzbzbzb8b+b+b+b+b+b+cccccdcdcdcdcdcdckckctctctctctcIcIcIcIcXcXcXcXc1c1c1c1c1c3c3c3c4c4c4c4c4c8c8dbdbdbdbdbdb                      ",
"                        auauavavavavavawawawaxaxaxaxaxaAaAaAaAaCaCaCaDaDaDaDaDaPaPaPa0a0a0a0a0a0a+bcbcbcbcbcbcbcbcbzbzbzbzbzbzbzbzb8b+b+b+b+b+b+cccccdcdcdcdcdcdckckckctctctctcIcIcIcIcXcXcXcXc1c1c1c1c1c3c3c3c4c4c4c4c4c8c8dbdbdbdbdbdb                        ",
"                          avavavavavawawawawaxaxaxaxaAaAaAaAaCaCaCaDaDaDaDaDaPaPaPa0a0a0a0a0a0a+bcbcbcbcbcbcbcbcbzbzbzbzbzbzbzbzb8b+b+b+b+b+b+cccccdcdcdcdcdcdckckckctctctctcIcIcIcIcXcXcXcXc1c1c1c1c1c3c3c3c4c4c4c4c4c8c8dbdbdbdbdbdb                          ",
"                            auavavawawawawaxaxaxaxaAaAaAaAaAaCaCaDaDaDaDaDaPaPaPa0a0a0a0a0a0a+bcbcbcbcbcbcbcbcbzbzbzbzbzbzbzbzb8b+b+b+b+b+b+cccccdcdcdcdcdcdckckckctctctctcIcIcIcIcIcXcXcXc1c1c1c1c1c3c3c3c4c4c4c4c4c8c8dbdbdbdbdbdb                            ",
"                                awawawawaxaxaxaxaAaAaAaAaAaCaCaDaDaDaDaDaDaPaPa0a0a0a0a0a0a+bcbcbcbcbcbcbcbcbzbzbzbzbzbzbzbzb8b+b+b+b+b+b+cccccdcdcdcdcdcdckckckctctctctcIcIcIcIcIcXcXcXc1c1c1c1c1c1c3c3c4c4c4c4c4c8c8dbdbdbdbdb                                ",
"                                  awawaxaxaxaxaAaAaAaAaAaCaCaDaDaDaDaDaDaPaPa0a0a0a0a0a0a0bcbcbcbcbcbcbcbcbzbzbzbzbzbzbzbzb8b+b+b+b+b+b+cccccdcdcdcdcdcdckckckctctctctcIcIcIcIcIcXcXcXc1c1c1c1c1c1c3c3c4c4c4c4c4c4c8dbdbdbdbdb                                  ",
"                                        axaxaxaAaAaAaAaCaCaCaDaDaDaDaDaPaPaPa0a0a0a0a0a0a+bcbcbcbcbcbcbcbcbzbzbzbzbzbzbzb8b+b+b+b+b+b+b+cccdcdcdcdcdcdckckckctctctctctcIcIcIcIcXcXcXc1c1c1c1c1c1c3c3c4c4c4c4c4c4c8dbdbdb                                        ",
"                                              aAaAaAaCaCaCaDaDaDaDaDaPaPaPa0a0a0a0a0a0a+bcbcbcbcbcbcbcbcbzbzbzbzbzbzbzbzb+b+b+b+b+b+b+cccdcdcdcdcdcdcdckckctctctctctcIcIcIcIcXcXcXcXc1c1c1c1c1c3c3c3c4c4c4c4c4dDc8                                              ",
"                                                                                                                                                                                                                                                                ",
"                                                                                                                                                                                                                                                                ",
"                                                                                                                                                                                                                                                                ",
"                                                                                                                                                                                                                                                                ",
"                                                                                                                                                                                                                                                                ",
"                                                                                                                                                                                                                                                                ",
"                                                                                                                                                                                                                                                                ",
"                                                                                                                                                                                                                                                                ",
"                                                                                                                                                                                                                                                                ",
"                                                                                                                                                                                                                                                                ",
"                                                                                                                                                                                                                                                                ",
"                                                                                                                                                                                                                                                                "
};
